build/img/icons/price.svg

<svg xmlns="http://www.w3.org/2000/svg" width="62" height="62" viewBox="0 0 62 62" fill="none"> <g filter="url(#filter0_d)"> <path d="M45.9927 23.2634L44.6831 21.7524C44.1123 21.0808 43.7429 20.2413 43.6758 19.3347L43.5079 17.3536C43.34 15.3054 41.6946 13.66 39.6464 13.4921L37.6653 13.3242C36.7922 13.2571 35.9192 12.9213 35.2476 12.3169L33.7366 11.0073C32.1584 9.66422 29.8416 9.66422 28.2634 11.0073L26.7524 12.3169C26.0808 12.8877 25.2413 13.2571 24.3347 13.3242L22.3536 13.4921C20.3054 13.66 18.66 15.3054 18.4921 17.3536L18.3242 19.3347C18.2571 20.2078 17.9213 21.0808 17.3169 21.7524L16.0073 23.2634C14.6642 24.8416 14.6642 27.1584 16.0073 28.7366L17.3169 30.2476C17.8877 30.9192 18.2571 31.7587 18.3242 32.6653L18.4921 34.6464C18.66 36.6947 20.3054 38.34 22.3536 38.5079L24.3347 38.6758C25.2078 38.7429 26.0808 39.0787 26.7524 39.6831L28.2634 40.9927C29.8416 42.3358 32.1584 42.3358 33.7366 40.9927L35.2476 39.6831C35.9192 39.1123 36.7587 38.7429 37.6653 38.6758L39.6464 38.5079C41.6946 38.34 43.34 36.6947 43.5079 34.6464L43.6758 32.6653C43.7429 31.7922 44.0787 30.9192 44.6831 30.2476L45.9927 28.7366C47.3358 27.1584 47.3358 24.808 45.9927 23.2634ZM32.1584 32.4638V34.1091C32.1584 34.277 32.0241 34.4113 31.8562 34.4113H30.2445C30.0766 34.4113 29.9423 34.277 29.9423 34.1091V32.4974C28.297 32.3966 26.9874 31.1207 26.8195 29.5089C26.7859 29.341 26.9538 29.1731 27.1217 29.1731H28.7335C28.8678 29.1731 29.0021 29.2739 29.0357 29.4082C29.1364 29.9119 29.5729 30.2812 30.1102 30.2812H31.5205C32.3599 30.2812 33.1322 29.6768 33.1994 28.8374C33.3001 27.8972 32.5614 27.0913 31.6212 27.0913H30.5803C28.5656 27.0913 26.7859 25.6474 26.5845 23.6327C26.383 21.5173 27.894 19.7377 29.8751 19.469V17.8573C29.8751 17.6894 30.0094 17.5551 30.1773 17.5551H31.7891C31.957 17.5551 32.0913 17.6894 32.0913 17.8573V19.469C33.7366 19.5698 35.0462 20.8457 35.2141 22.4575C35.2476 22.6254 35.0797 22.7933 34.9119 22.7933H33.3001C33.1658 22.7933 33.0315 22.6925 32.9979 22.5582C32.8972 22.0546 32.4606 21.6852 31.9234 21.6852H30.5131C29.6737 21.6852 28.9014 22.2896 28.8342 23.1291C28.7335 24.0693 29.4722 24.9087 30.4124 24.9087H31.6212C33.8709 24.9087 35.6506 26.8227 35.4155 29.106C35.2812 30.852 33.8709 32.1616 32.1584 32.4638Z" fill="#FFD600"/> </g> <defs> <filter id="filter0_d" x="0" y="0" width="62" height="62" filterUnits="userSpaceOnUse" color-interpolation-filters="sRGB"> <feFlood flood-opacity="0" result="BackgroundImageFix"/> <feColorMatrix in="SourceAlpha" type="matrix" values="0 0 0 0 0 0 0 0 0 0 0 0 0 0 0 0 0 0 127 0"/> <feOffset dy="5"/> <feGaussianBlur stdDeviation="7.5"/> <feColorMatrix type="matrix" values="0 0 0 0 1 0 0 0 0 0.839216 0 0 0 0 0 0 0 0 0.2 0"/> <feBlend mode="normal" in2="BackgroundImageFix" result="effect1_dropShadow"/> <feBlend mode="normal" in="SourceGraphic" in2="effect1_dropShadow" result="shape"/> </filter> </defs> </svg>

<svg xmlns="http://www.w3.org/2000/svg" width="62" height="62" fill="none"><g filter="url(#filter0_d)"><path d="M45.993 23.263l-1.31-1.51a4.222 4.222 0 01-1.007-2.418l-.168-1.981a4.237 4.237 0 00-3.862-3.862l-1.98-.168c-.874-.067-1.747-.403-2.418-1.007l-1.511-1.31a4.221 4.221 0 00-5.474 0l-1.51 1.31a4.23 4.23 0 01-2.418 1.007l-1.981.168a4.237 4.237 0 00-3.862 3.862l-.168 1.98c-.067.874-.403 1.747-1.007 2.418l-1.31 1.511a4.22 4.22 0 000 5.474l1.31 1.51a4.23 4.23 0 011.007 2.418l.168 1.981a4.237 4.237 0 003.862 3.862l1.98.168c.874.067 1.747.403 2.418 1.007l1.511 1.31a4.22 4.22 0 005.474 0l1.51-1.31a4.222 4.222 0 012.418-1.007l1.981-.168a4.237 4.237 0 003.862-3.862l.168-1.98c.067-.874.403-1.747 1.007-2.418l1.31-1.511c1.343-1.579 1.343-3.929 0-5.474zm-13.835 9.2v1.646a.3.3 0 01-.302.302h-1.612a.3.3 0 01-.302-.302v-1.612a3.343 3.343 0 01-3.122-2.988c-.034-.168.134-.336.302-.336h1.611c.135 0 .27.1.303.235.1.504.537.873 1.074.873h1.41c.84 0 1.612-.604 1.68-1.444a1.58 1.58 0 00-1.579-1.746h-1.04c-2.015 0-3.795-1.444-3.997-3.458a3.82 3.82 0 013.291-4.164v-1.612a.3.3 0 01.302-.302h1.612a.3.3 0 01.302.302v1.612a3.343 3.343 0 013.123 2.988c.034.168-.134.336-.302.336H33.3a.323.323 0 01-.302-.235 1.084 1.084 0 00-1.075-.873h-1.41c-.84 0-1.612.605-1.679 1.444-.1.94.638 1.78 1.578 1.78h1.21a3.795 3.795 0 013.794 4.197c-.135 1.746-1.545 3.056-3.258 3.358z" fill="#FFD600"/></g><defs><filter id="filter0_d" x="0" y="0" width="62" height="62" filterUnits="userSpaceOnUse" color-interpolation-filters="sRGB"><feFlood flood-opacity="0" result="BackgroundImageFix"/><feColorMatrix in="SourceAlpha" values="0 0 0 0 0 0 0 0 0 0 0 0 0 0 0 0 0 0 127 0"/><feOffset dy="5"/><feGaussianBlur stdDeviation="7.5"/><feColorMatrix values="0 0 0 0 1 0 0 0 0 0.839216 0 0 0 0 0 0 0 0 0.2 0"/><feBlend in2="BackgroundImageFix" result="effect1_dropShadow"/><feBlend in="SourceGraphic" in2="effect1_dropShadow" result="shape"/></filter></defs></svg>
